Catalina-dark/actions/16/tools-rip-audio-cd.svg

<?xml version="1.0" encoding="UTF-8" standalone="no"?>
<svg
   xmlns:dc="http://purl.org/dc/elements/1.1/"
   xmlns:cc="http://creativecommons.org/ns#"
   xmlns:rdf="http://www.w3.org/1999/02/22-rdf-syntax-ns#"
   xmlns:svg="http://www.w3.org/2000/svg"
   xmlns="http://www.w3.org/2000/svg"
   xmlns:sodipodi="http://sodipodi.sourceforge.net/DTD/sodipodi-0.dtd"
   xmlns:inkscape="http://www.inkscape.org/namespaces/inkscape"
   width="16"
   height="16"
   viewBox="0 0 16 16"
   version="1.1"
   id="svg7"
   sodipodi:docname="filename-filetype-amarok.svg"
   inkscape:version="0.92.4 5da689c313, 2019-01-14">
  <metadata
     id="metadata11">
    <rdf:RDF>
      <cc:Work
         rdf:about="">
        <dc:format>image/svg+xml</dc:format>
        <dc:type
           rdf:resource="http://purl.org/dc/dcmitype/StillImage" />
      </cc:Work>
    </rdf:RDF>
  </metadata>
  <sodipodi:namedview
     pagecolor="#ffffff"
     bordercolor="#666666"
     borderopacity="1"
     objecttolerance="10"
     gridtolerance="10"
     guidetolerance="10"
     inkscape:pageopacity="0"
     inkscape:pageshadow="2"
     inkscape:window-width="640"
     inkscape:window-height="480"
     id="namedview9"
     showgrid="false"
     inkscape:zoom="14.75"
     inkscape:cx="6.8135593"
     inkscape:cy="8"
     inkscape:window-x="0"
     inkscape:window-y="26"
     inkscape:window-maximized="0"
     inkscape:current-layer="svg7" />
  <defs
     id="defs3">
    <style
       id="current-color-scheme"
       type="text/css">
   .ColorScheme-Text { color:#5c616c; } .ColorScheme-Highlight { color:#5294e2; }
  </style>
  </defs>
  <path
     style="fill:#f1f6f8;fill-opacity:0.8509804"
     class="ColorScheme-Text"
     d="M 14 0.99414062 L 5 1 L 5 9.1875 C 4.68 9.0675 4.36 8.9980469 4 8.9980469 C 2.3432 8.9980469 1 10.341247 1 11.998047 C 1 13.654847 2.3432 14.998047 4 14.998047 C 5.6568 14.998047 7 13.654847 7 11.998047 L 7 4.9980469 L 13 4.9980469 L 13 9.1855469 C 12.68 9.0655469 12.36 8.9941406 12 8.9941406 C 10.3432 8.9941406 9 10.337341 9 11.994141 C 9 13.650941 10.3432 14.994141 12 14.994141 C 13.6568 14.994141 15 13.650941 15 11.994141 L 15 0.99414062 L 14 0.99414062 z"
     id="path5" />
</svg>

<svg width="16" height="16" version="1.1" viewBox="0 0 16 16" xmlns="http://www.w3.org/2000/svg">
<defs>
<style id="current-color-scheme" type="text/css">.ColorScheme-Text { color:#5c616c; } .ColorScheme-Highlight { color:#5294e2; }</style>
</defs>
<path class="ColorScheme-Text" d="m14 0.99414-9 0.0058594v8.1875c-0.32-0.12-0.64-0.18945-1-0.18945-1.6568 0-3 1.3432-3 3s1.3432 3 3 3 3-1.3432 3-3v-7h6v4.1875c-0.32-0.12-0.64-0.19141-1-0.19141-1.6568 0-3 1.3432-3 3s1.3432 3 3 3 3-1.3432 3-3v-11h-1z" fill="#f1f6f8" fill-opacity=".85098"/>
</svg>
